images/icons/404.svg

<svg viewBox="0 0 580 248" xmlns="http://www.w3.org/2000/svg"><path d="m482.118164 454.058594h33.50293v24.920898h-33.50293v55.783203h-30.532226v-55.783203h-109.585938v-17.989258l107.605469-166.524414h32.512695zm-106.285156 0h75.75293v-118.993164l-4.951172 9.242187zm336.18457-11.222656c0 15.293696-1.760399 28.85427-5.28125 40.682128-3.520851 11.827859-8.581998 21.785116-15.183594 29.872071-6.601595 8.086954-14.688428 14.220845-24.260742 18.401855-9.572313 4.181011-20.519795 6.271485-32.842773 6.271485-12.212952 0-23.132927-2.090474-32.760254-6.271485-9.627327-4.18101-17.796679-10.314901-24.508301-18.401855-6.711622-8.086955-11.855288-18.044212-15.431152-29.872071-3.575865-11.827858-5.36377-25.388432-5.36377-40.682128v-56.278321c0-15.293696 1.760399-28.85427 5.28125-40.682129 3.520851-11.827858 8.609505-21.812622 15.266113-29.95459 6.656609-8.141967 14.798455-14.33087 24.425782-18.566894s20.547302-6.354004 32.760254-6.354004c12.322978 0 23.297966 2.11798 32.925293 6.354004 9.627326 4.236024 17.769172 10.424927 24.425781 18.566894 6.656609 8.141968 11.745262 18.126732 15.266113 29.95459 3.520851 11.827859 5.28125 25.388433 5.28125 40.682129zm-124.93457-6.106446 93.577148-71.791992c-1.760425-15.953856-6.408979-28.084106-13.945801-36.391113-7.536821-8.307008-18.401784-12.460449-32.595214-12.460449-16.063883 0-27.91907 5.418728-35.565918 16.256347s-11.470215 26.653705-11.470215 47.448731zm94.237304-42.580078-93.412109 71.461914c1.870452 15.51375 6.656537 27.341431 14.358399 35.483399 7.701861 8.141967 18.429293 12.21289 32.182617 12.21289 16.173909 0 28.029096-5.501247 35.565918-16.503906 7.536821-11.002659 11.305175-26.846251 11.305175-47.53125zm206.463868 59.90918h33.502929v24.920898h-33.502929v55.783203h-30.532227v-55.783203h-109.585937v-17.989258l107.605468-166.524414h32.512696zm-106.285157 0h75.75293v-118.993164l-4.951172 9.242187z" fill="#fff" fill-rule="evenodd" transform="translate(-342 -291)"/></svg>

<?xml version="1.0" encoding="UTF-8"?>
<svg viewBox="0 0 580 248" version="1.1" xmlns="http://www.w3.org/2000/svg" xmlns:xlink="http://www.w3.org/1999/xlink">
    <desc>Created with Sketch.</desc>
    <defs></defs>
    <g id="Mockups-v5-Desktop" stroke="none" stroke-width="1" fill="none" fill-rule="evenodd">
        <g id="07-404" transform="translate(-342.000000, -291.000000)" fill="#FFFFFF">
            <path d="M482.118164,454.058594 L515.621094,454.058594 L515.621094,478.979492 L482.118164,478.979492 L482.118164,534.762695 L451.585938,534.762695 L451.585938,478.979492 L342,478.979492 L342,460.990234 L449.605469,294.46582 L482.118164,294.46582 L482.118164,454.058594 Z M375.833008,454.058594 L451.585938,454.058594 L451.585938,335.06543 L446.634766,344.307617 L375.833008,454.058594 Z M712.017578,442.835938 C712.017578,458.129634 710.257179,471.690208 706.736328,483.518066 C703.215477,495.345925 698.15433,505.303182 691.552734,513.390137 C684.951139,521.477091 676.864306,527.610982 667.291992,531.791992 C657.719679,535.973003 646.772197,538.063477 634.449219,538.063477 C622.236267,538.063477 611.316292,535.973003 601.688965,531.791992 C592.061638,527.610982 583.892286,521.477091 577.180664,513.390137 C570.469042,505.303182 565.325376,495.345925 561.749512,483.518066 C558.173647,471.690208 556.385742,458.129634 556.385742,442.835938 L556.385742,386.557617 C556.385742,371.263921 558.146141,357.703347 561.666992,345.875488 C565.187843,334.04763 570.276497,324.062866 576.933105,315.920898 C583.589714,307.778931 591.73156,301.590028 601.358887,297.354004 C610.986214,293.11798 621.906189,291 634.119141,291 C646.442119,291 657.417107,293.11798 667.044434,297.354004 C676.67176,301.590028 684.813606,307.778931 691.470215,315.920898 C698.126824,324.062866 703.215477,334.04763 706.736328,345.875488 C710.257179,357.703347 712.017578,371.263921 712.017578,386.557617 L712.017578,442.835938 Z M587.083008,436.729492 L680.660156,364.9375 C678.899731,348.983644 674.251177,336.853394 666.714355,328.546387 C659.177534,320.239379 648.312571,316.085938 634.119141,316.085938 C618.055258,316.085938 606.200071,321.504666 598.553223,332.342285 C590.906375,343.179904 587.083008,358.99599 587.083008,379.791016 L587.083008,436.729492 Z M681.320312,394.149414 L587.908203,465.611328 C589.778655,481.125078 594.56474,492.952759 602.266602,501.094727 C609.968463,509.236694 620.695895,513.307617 634.449219,513.307617 C650.623128,513.307617 662.478315,507.80637 670.015137,496.803711 C677.551958,485.801052 681.320312,469.95746 681.320312,449.272461 L681.320312,394.149414 Z M887.78418,454.058594 L921.287109,454.058594 L921.287109,478.979492 L887.78418,478.979492 L887.78418,534.762695 L857.251953,534.762695 L857.251953,478.979492 L747.666016,478.979492 L747.666016,460.990234 L855.271484,294.46582 L887.78418,294.46582 L887.78418,454.058594 Z M781.499023,454.058594 L857.251953,454.058594 L857.251953,335.06543 L852.300781,344.307617 L781.499023,454.058594 Z"
                  id="404"></path>
        </g>
    </g>
</svg>
